X:1
T:Title
%%score { ( 1 3 ) | ( 2 4 ) }
L:1/8
Q:1/4=100
M:2/4
K:C
V:1 treble nm="Grand Piano"
V:3 treble 
V:2 bass 
V:4 bass 
V:1
 C>D EF | [G,CEG][G,B,DFG] [G,CEG]2 | [Ec]>[EB] [EA][G,CEG] | [G,B,DFG]2 [G,B,DF]2 | D>E FG | %5
w: C.~Austin~Miles * * *|||||
 [DFB][DFB] [DFB]2 | [DFA]>[DFA] [DFB][DFA] | [_EA]2 [G,C=EG]2 | C>D EF | [G,CEG][G,B,DFG] [CEG]2 | %10
w: |||||
 A>B cd | [^Ge]4 | A>A dd | [EG][EG] [Ec]2 | [Ec]>[DB] [Ge][Fd] | [Ec]4 | %16
w: ||||||
[M:4/4] [Ac]4 [_Bd]2 [Ac]2 | [FA]4 [D_B]2 [CA]2 | z4 [EG]2 [G_B]2 | z4 [Ac]4 | [Ac]4 [_Bd]2 [Ac]2 | %21
w: |||||
 A4 [D_B]2 G2 | FEDE [FA]2 [EG]2 | F6 z2 |[M:2/4] C>D EF | [G,CEG][G,B,DFG] [G,CEG]2 | %26
w: |||||
 [Ec]>[EB] [EA][G,CEG] | [G,B,DFG]2 [G,B,DF]2 | D>E FG | [DFB][DFB] [DFB]2 | %30
w: ||||
 [DFA]>[DFA] [DFB][DFA] | [_EA]2 [G,C=EG]2 | C>D EF | [G,CEG][G,B,DFG] [CEG]2 | A>B cd | [^Ge]4 | %36
w: ||||||
 A>A dd | [EG][EG] [Ec]2 | [Ec]>[DB] [Ge][Fd] |[M:6/4] .[Ec]6 z6 |] %40
w: ||||
V:2
 C,>D, E,F, | C,G,, C,2 | [C,G,C]>[C,G,C] [C,G,C]C, | G,,2 G,,2 | D,>E, F,G, | %5
 [G,,G,][G,,G,] [G,,G,]2 | [G,,G,]>[G,,G,] [G,,G,][G,,G,] | [C,^F,C]2 C,2 | C,>D, E,F, | %9
 C,G,, C,2 | [F,CF]>[F,B,F] [F,A,F][F,A,F] | [E,B,]4 | [F,DF]>[F,DF] [F,A,F][F,A,F] | %13
 [C,C][C,C] [C,G,]2 | [G,,G,]>[G,,G,] [G,,G,][G,,G,] | [C,G,]4 | %16
[M:4/4] [F,,F,][F,A,][F,A,][F,A,C] [F,,F,][F,A,][F,A,C][F,A,] | %17
 [F,,F,][F,A,][F,A,][F,A,C] [F,,F,]F,F,F, | %18
 [C,,C,][E,G,CE][E,G,CE][E,G,C_E] [C,,C,][E,G,][E,G,C][E,G,] | %19
 [F,,F,][F,A,C][F,A,C][F,A,C] [F,,F,][F,A,][F,A,][F,A,] | %20
 [F,,F,][F,A,][F,A,][F,A,C] [F,,F,][F,A,][F,A,C][F,A,] | z4 z2 D2 | %22
 [C,A,C][C,G,C][C,F,C][C,G,C] [C,C]2 [C,_B,]2 | [F,A,]6 z2 |[M:2/4] C,>D, E,F, | C,G,, C,2 | %26
 [C,G,C]>[C,G,C] [C,G,C]C, | G,,2 G,,2 | D,>E, F,G, | [G,,G,][G,,G,] [G,,G,]2 | %30
 [G,,G,]>[G,,G,] [G,,G,][G,,G,] | [C,^F,C]2 C,2 | C,>D, E,F, | C,G,, C,2 | %34
 [F,CF]>[F,B,F] [F,A,F][F,A,F] | [E,B,]4 | [F,DF]>[F,DF] [F,A,F][F,A,F] | [C,C][C,C] [C,G,]2 | %38
 [G,,G,]>[G,,G,] [G,,G,][G,,G,] |[M:6/4] .[C,G,]6 z6 |] %40
V:3
 x4 | x4 | x4 | x4 | x4 | x4 | x4 | x4 | x4 | x4 | x4 | x4 | x4 | x4 | x4 | x4 | %16
[M:4/4] z CC[^GB] z C z C | z CCF z A,A,A, | [FA]GG^F z C z C | [_Bd][Ac][Ac][^G=B] z CCC | %20
 z CC[^GB] z C z C | FE_EF z _B, z B, | x8 | x8 |[M:2/4] x4 | x4 | x4 | x4 | x4 | x4 | x4 | x4 | %32
 x4 | x4 | x4 | x4 | x4 | x4 | x4 |[M:6/4] x12 |] %40
V:4
 x4 | x4 | x4 | x4 | x4 | x4 | x4 | x4 | x4 | x4 | x4 | x4 | x4 | x4 | x4 | x4 |[M:4/4] x8 | x8 | %18
 x8 | x8 | x8 | [F,,F,][F,A,C][F,A,C][F,A,C_E] [G,,G,][D,G,][D,G,_B,][D,G,] | x8 | x8 |[M:2/4] x4 | %25
 x4 | x4 | x4 | x4 | x4 | x4 | x4 | x4 | x4 | x4 | x4 | x4 | x4 | x4 |[M:6/4] x12 |] %40

